**kern
*MM60
*k[]
*M4/4
=1
8r
8d
8c#
8d
4A
[4g
=2
8g]
16f
16e
8f
8d
4.e
16d
16e
=3
8d
16e
16f
8e
8d
8c
16B
16A
8G#
8B
=4
8e
8g#
8a
8f
16d
16e
16c
16d
16B
16e
16d
16e
=5
8c
16B
16A
8d
8c
8B
8A
8B
8c#
=6
4d
8e
8f
16c#
16d
16c#
16B
[4A
=7
8A]
8c#
2d
4c#
=8
4.d
8B
8c
16f
16e
8d
[8e
=9
8e]
16f
16g
8f
[8e
8e]
[8g#
8g#]
16a
16b
=10
8e
16f#
16g
8r
8c
8f
8d
[4e
=11
2e]
[2d
=12
2d]
[2c
=13
8c]
8c#
8d
8A
4B
8c
16d
16e
=14
4d
8e
[8f
8f]
16e
16d
16e
16c#
[8e
=15
8e]
16d
16c#
2d
4c
=16
2d
2c
=17
2B
[4A
8A]
8G#
=18
8c
8a
8g#
8a
4e
[4dd
=19
8dd]
16cc
16b
8cc
16b
16a
4.b
8b
=20
8a
8cc
8dd
8ee
8a
8a
8b-
8cc
=21
8dd
8b
8cc
8dd
8g
8g
8a
8b
=22
8cc
8a
8b-
8cc
8f
[8g
8g]
[8f
=23
4f]
4e
4f
8g
8a
=24
16e
16f
16e
16d
[4c
8c]
8c
[4f
=25
4f]
4e
4f
8g
8f
=26
1r
=27
1r
=28
1r
=29
8r
8c
8B
8c
4G
[4f
=30
8f]
16e
16d
8e
8c
4.d
8d
=31
8c
8d
8e
8f#
[4d
16d]
16f
16e
16d
=32
8c
[8f
16f]
16a
16g
16d
[4e
16e]
16g
16f
16c
=33
[4d
16d]
16f
16e
16B
8c
8A
8G#
8A
=34
8E
16c
16e
16B
16e
16A
16e
16G#
16B
16F#
16B
16E
16G#
16B
16e
=35
16g#
16b
16e
16g#
16a
16g
16f
16e
16d
16e
16c
16d
16B
16e
16d
16e
=36
16c
16d
[8e
16e]
16d
8c
8B
8A
16G#
16B
16e
16g#
=37
8b
8e
[4a
16a]
16f#
16g#
16a
16g#
16a
16b
16g#
=38
16e
16c
16d
16e
16f
16e
16g
16f
8a
8b-
8a
8g
=39
8f
8dd
8cc#
8dd
16a
16g
16f
16a
16e
16a
16f
16a
=40
8c#
8d
8c#
8d
16A
16G
16F
16A
16E
16A
16F
16A
=41
8E
8c#
8d
8e
8r
16D
16E
16D
16C
16BB-
16AA
=42
4GG
4r
8r
16C
16D
16C
16BB-
16AA
16GG
=43
4FF
8c
8c
8c
16a
16cc
16g
16cc
16a
16cc
=44
8e
8f
8e
8f
16c
16B-
16A
16c
16G
16c
16A
16c
=45
8E
8e
8f
8g
8r
16F
16G
16F
16E-
16D
16C
=46
4BB-
8f
8f
8f
16dd
16ff
16cc
16ff
16dd
16ff
=47
8a
8b-
8a
8b-
16f
16e-
16d
16f
16c
16f
16d
16f
=48
8A
8a
8b-
8a
8f
8g
8f
8e-
=49
8d
8f
16g
16a
16f
16g
8e
[8f
8f]
8e
=50
8f
8f#
8g
8a
2r
=51
8r
8c
8d
8e
2r
=52
8r
8B-
8c
8d
2r
=53
2r
8r
8f#
8g
8a
=54
4g
8g
8f#
8d
16b-
16dd
16a
16dd
16b-
16dd
=55
8f#
8g
8f#
8g
8f#
8f#
8g
8a
=56
8d
8e-
8d
8c
8B-
16c#
16d
8e
16e
16f
=57
8g
16c#
16d
8e
8a
16g
16a
16g
16f
16e
16a
16g
16a
=58
8f
8dd
8cc#
8dd
16a
16g
16f
16a
16e
16a
16d
16a
=59
16c#
16e
16B
16e
[4A
16A]
16A
16B
16c
[4d
=60
16d]
16B
16c#
16d
16c#
16e
16d
16c#
16d
16a
16f
16d
16G
16f
16e
16d
=61
16c
16g
16e
16c
16F
16e
16d
16c
16B-
16f
16d
16B-
16E
16d
16c#
16B
=62
16e
16g
16f
16e
16A
16e
16d
16c#
4d
4c#
=63
1A
==
*-
